frontend/src/assets/images/Profile icon no background.svg

<svg width="22" height="24" viewBox="0 0 22 24" fill="none" xmlns="http://www.w3.org/2000/svg">
<path d="M20.703 22.7067V20.3275C20.703 19.0654 20.1919 17.8551 19.282 16.9627C18.3722 16.0703 17.1382 15.5689 15.8515 15.5689H6.1485C4.8618 15.5689 3.6278 16.0703 2.71797 16.9627C1.80814 17.8551 1.297 19.0654 1.297 20.3275V22.7067M15.8515 6.05178C15.8515 8.67986 13.6794 10.8103 11 10.8103C8.32059 10.8103 6.1485 8.67986 6.1485 6.05178C6.1485 3.42369 8.32059 1.29321 11 1.29321C13.6794 1.29321 15.8515 3.42369 15.8515 6.05178Z" stroke="#153B61" stroke-width="2" stroke-linecap="round" stroke-linejoin="round"/>
</svg>

<svg xmlns="http://www.w3.org/2000/svg" width="22" height="24" fill="none"><path stroke="#153B61" stroke-linecap="round" stroke-linejoin="round" stroke-width="2" d="M20.703 22.707v-2.38a4.71 4.71 0 0 0-1.421-3.364 4.9 4.9 0 0 0-3.43-1.394H6.149a4.9 4.9 0 0 0-3.431 1.394 4.71 4.71 0 0 0-1.421 3.364v2.38M15.852 6.052c0 2.628-2.173 4.758-4.852 4.758S6.149 8.68 6.149 6.052 8.32 1.293 11 1.293c2.68 0 4.852 2.13 4.852 4.759"/></svg>
